X: 26041
T: Mc Govern's Favourite
R: reel
M: 4/4
K: Dmajor
A2AB GEDE|GA(3Bcd ed (3Bcd|eaaf gedB|A2BG AGED|
EAAA GEDE|GA(3Bcd ed (3Bcd|eaaf gedB|A2BG A4|
agab agef|gedB GA (3Bcd|egfa gedB|A2BG AG (3Bcd|
eaag agef|gedB GA (3Bcd|egfa gedB|A2BG A4|
agab agef|gedB GA (3Bcd|egfa gedB|A2BG AGED|
EAAA GAAG|AB_cA B_cdB|e2ea agef|gedB A4||

